docs/images/icons/mail.svg

<svg width="20.000000" height="20.000000" viewBox="0 0 20 20" fill="none" xmlns="http://www.w3.org/2000/svg" xmlns:xlink="http://www.w3.org/1999/xlink">
	<desc>
			Created with Pixso.
	</desc>
	<defs/>
	<path id="Vector" d="M2.5 2.5L17.5 2.5C17.721 2.5 17.933 2.58789 18.0893 2.74414C18.2455 2.90039 18.3334 3.1123 18.3334 3.3335L18.3334 16.6665C18.3334 16.8877 18.2455 17.0996 18.0893 17.2559C17.933 17.4121 17.721 17.5 17.5 17.5L2.5 17.5C2.27899 17.5 2.06702 17.4121 1.91077 17.2559C1.75446 17.0996 1.66669 16.8877 1.66669 16.6665L1.66669 3.3335C1.66669 3.1123 1.75446 2.90039 1.91077 2.74414C2.06702 2.58789 2.27899 2.5 2.5 2.5ZM16.6667 6.03174L10.06 11.9482L3.33337 6.01318L3.33337 15.8335L16.6667 15.8335L16.6667 6.03174ZM3.75922 4.1665L10.0508 9.71826L16.2517 4.1665L3.75922 4.1665Z" fill="#BDBDC0" fill-opacity="1.000000" fill-rule="nonzero"/>
</svg>

<svg width="20" height="20" fill="none" xmlns="http://www.w3.org/2000/svg"><path d="M2.5 2.5h15a.834.834 0 0 1 .833.833v13.333a.834.834 0 0 1-.833.834h-15a.834.834 0 0 1-.833-.834V3.334A.833.833 0 0 1 2.5 2.5Zm14.167 3.532-6.607 5.916-6.727-5.935v9.82h13.334v-9.8ZM3.759 4.167l6.292 5.551 6.2-5.551H3.76Z" fill="#BDBDC0"/></svg>
